X: 21600
T: Killarney Boys Of Pleasure, The
R: reel
M: 4/4
K: Eminor
E2 FD E2 FA|BFAF DEFA|B2 Bd e2 ed|BdAF DEFD|
E2 FD E2 FA|BFAF DEFA|B2 Bd e2 ed|BdAF FE E2:|
Beee Befe|BdAF DEFA|f2 fe f2 fe|dBAF DEFA|
Beee Befe|BdAF DEFA|f2 fe defe|dBAF FEE2:|

